X:6
T:Par le baptme de renaissance - I296
C:J. Akepsimas
M:6/8
K:Dm
"Rem"A,DE F2F|"Do"EGF E2E|"Solm"D2D "Lam"CDE|[1"Rem"D6:|[2"Rem"D3- D2"Do"E|\
"Fa"FGA A2G|
"Rem"c=BA "Mim"G3|"Rem"FED "Solm"F3|"Lam"E6|"Rem"A,DE F2F|"Do"EGF E2E|\
"Solm"D2D "Lam"CDE|"Rem"D6||
